packages/dnb-eufemia/assets/icons/volume_off.svg

<svg width="16" height="16" viewBox="0 0 16 16" fill="none" xmlns="http://www.w3.org/2000/svg">
<path d="M9.4 2.94995L5 5.74995H3C2.45533 5.74995 2 6.20528 2 6.74995V8.74995M2 13.25L14 3.24995M8 11.659L9.4 12.55C9.69714 12.7728 10.115 12.8105 10.4472 12.6444C10.7794 12.4783 11 12.1214 11 11.75V9" stroke="black" stroke-width="1.5" stroke-linecap="round" stroke-linejoin="round"/>
</svg>

<svg width="16" height="16" viewBox="0 0 16 16" fill="none" xmlns="http://www.w3.org/2000/svg"><path d="M9.4 2.95 5 5.75H3c-.545 0-1 .455-1 1v2m0 4.5 12-10m-6 8.409 1.4.891c.297.223.715.26 1.047.094.332-.166.553-.523.553-.894V9" stroke="#000" stroke-width="1.5" stroke-linecap="round" stroke-linejoin="round"/></svg>
